public/images/cy8.svg

<svg width="100" height="100" viewBox="0 0 100 100" fill="none" xmlns="http://www.w3.org/2000/svg">
<path d="M26.6708 50.19C26.6708 55.2864 25.2212 59.2048 22.3221 61.9452C19.423 64.6856 15.2354 66.0372 9.75929 66.0124H1V35H10.7133C15.7681 35 19.6832 36.3392 22.4584 39.0052C25.2336 41.6712 26.6336 45.4036 26.6708 50.19ZM19.8566 50.3636C19.8566 43.742 16.9204 40.4188 11.0478 40.4188H7.55398V60.544H10.3664C16.6973 60.544 19.869 57.1464 19.8566 50.3636Z" fill="#2D2D2D"/>
<path d="M33.0885 65.9628V35H39.6549V65.9628H33.0885Z" fill="#2D2D2D"/>
<path d="M54.0018 54.096V65.9628H47.4354V35H56.4673C60.6796 35 63.7894 35.7688 65.8088 37.294C67.8159 38.8192 68.8319 41.1504 68.8319 44.2752C68.8566 46.0112 68.3363 47.7224 67.3327 49.136C66.2549 50.624 64.7805 51.7772 63.0832 52.4716C67.7416 59.428 70.7646 63.9292 72.1894 65.9628H64.9168L57.4956 54.096H54.0018ZM54.0018 48.764H56.1203C57.7186 48.8756 59.3168 48.516 60.7168 47.7224C61.7327 46.966 62.3027 45.726 62.2035 44.4612C62.315 43.2212 61.7327 42.006 60.692 41.324C59.2425 40.6172 57.6195 40.3072 56.0088 40.4188H54.0265V48.764H54.0018Z" fill="#2D2D2D"/>
<path d="M76.0549 35H85.6814C90.0673 35 93.2513 35.62 95.2336 36.8724C97.2159 38.1248 98.2071 40.1088 98.2071 42.8368C98.269 44.4488 97.8106 46.0236 96.9062 47.3504C96.0885 48.5036 94.8372 49.2724 93.4496 49.4956V49.7064C95.1221 49.9668 96.6336 50.8472 97.6991 52.1616C98.6283 53.5752 99.0867 55.2616 99 56.948C99.1115 59.5148 97.9717 61.9824 95.9398 63.5572C93.8956 65.1444 91.1327 65.938 87.6266 65.938H76.0549V35ZM82.6089 47.2636H86.4248C87.7628 47.3628 89.1133 47.0776 90.2903 46.4452C91.1204 45.8004 91.5788 44.7836 91.4796 43.7296C91.5664 42.7004 91.0584 41.7084 90.1788 41.1752C88.8903 40.5676 87.4779 40.3072 86.0655 40.394H82.6212V47.2636H82.6089ZM82.6089 52.484V60.5564H86.8832C88.2956 60.668 89.708 60.3084 90.885 59.5272C91.7894 58.7336 92.2726 57.5556 92.1735 56.3404C92.1735 53.7736 90.3398 52.484 86.6726 52.484H82.6089Z" fill="#2D2D2D"/>
</svg>

<svg xmlns="http://www.w3.org/2000/svg" width="100" height="100" fill="none"><path fill="#2D2D2D" d="M26.67 50.19q0 7.645-4.348 11.755c-2.899 2.74-7.087 4.092-12.563 4.067H1V35h9.713c5.055 0 8.97 1.34 11.745 4.005 2.776 2.666 4.176 6.399 4.213 11.185m-6.813.174c0-6.622-2.937-9.945-8.81-9.945H7.555v20.125h2.812c6.331 0 9.503-3.398 9.49-10.18M33.089 65.963V35h6.566v30.963zM54.002 54.096v11.867h-6.567V35h9.032c4.213 0 7.322.769 9.342 2.294 2.007 1.525 3.023 3.856 3.023 6.981a8.2 8.2 0 0 1-1.5 4.861 9.85 9.85 0 0 1-4.249 3.336c4.659 6.956 7.682 11.457 9.106 13.49h-7.272l-7.421-11.866zm0-5.332h2.118a8.16 8.16 0 0 0 4.597-1.042 3.72 3.72 0 0 0 1.486-3.26 3.4 3.4 0 0 0-1.511-3.138 9.25 9.25 0 0 0-4.683-.905h-1.983v8.345zM76.055 35h9.626c4.386 0 7.57.62 9.553 1.872 1.982 1.253 2.973 3.237 2.973 5.965a7.5 7.5 0 0 1-1.3 4.513 5.26 5.26 0 0 1-3.457 2.146v.21a6.83 6.83 0 0 1 4.25 2.456 8 8 0 0 1 1.3 4.786 7.93 7.93 0 0 1-3.06 6.61c-2.044 1.586-4.807 2.38-8.313 2.38H76.055zm6.554 12.264h3.816a7.1 7.1 0 0 0 3.865-.819 3.08 3.08 0 0 0 1.19-2.715 2.73 2.73 0 0 0-1.301-2.555 8.4 8.4 0 0 0-4.114-.781h-3.444v6.87zm0 5.22v8.072h4.274a6.34 6.34 0 0 0 4.002-1.029 3.82 3.82 0 0 0 1.288-3.187c0-2.566-1.833-3.856-5.5-3.856z"/></svg>
